X:20502
T:Saddle The Pony
R:Jig
B:Tuneworks Tunebook 2 (https://www.tuneworks.co.uk/)
G:Tuneworks
Z:Jon Warbrick <jon.warbrick@googlemail.com>
M:6/8
L:1/8
K:G
D |: "G" GBA G2 B | def gdB | "G" GBA G2 B | "D" AFD AFD |
"G" GBA G2 B | def gfg | "C" age"D" dBA |1 "G" BGG GBA :|2 "G" BGG GBd |
|: "Em" efe edB | def gfg | "D" efe edB | dBA ABd |
"C" efe edB | def gfg | "D" age dBA | BGG "G" GBd :| BGG "G" G2 |]